src/assets/svg/vk.svg

<svg width="25" height="24" viewBox="0 0 25 24"  xmlns="http://www.w3.org/2000/svg">
<rect x="0.132141" y="0.129333" width="23.8707" height="23.8707" rx="8" />
<path fill-rule="evenodd" clip-rule="evenodd" d="M19.6593 8.35206C19.77 7.98322 19.6593 7.71213 19.1328 7.71213H17.3918C16.9491 7.71213 16.7451 7.94629 16.6345 8.20457C16.6345 8.20457 15.749 10.3625 14.4948 11.7642C14.089 12.17 13.9046 12.299 13.6833 12.299C13.5726 12.299 13.4124 12.17 13.4124 11.8012V8.35206C13.4124 7.90936 13.2839 7.71213 12.915 7.71213H10.1792C9.9026 7.71213 9.73621 7.91756 9.73621 8.1123C9.73621 8.532 10.3632 8.62875 10.4279 9.80913V12.373C10.4279 12.9351 10.3264 13.037 10.1051 13.037C9.51486 13.037 8.0793 10.8693 7.22772 8.38899C7.06083 7.90687 6.89345 7.71213 6.44851 7.71213H4.70753C4.21011 7.71213 4.11063 7.94629 4.11063 8.20457C4.11063 8.66568 4.70094 10.9528 6.85888 13.9776C8.29767 16.0432 10.3244 17.1631 12.1689 17.1631C13.2756 17.1631 13.4124 16.9144 13.4124 16.486V14.9247C13.4124 14.4273 13.5172 14.3281 13.8675 14.3281C14.126 14.3281 14.5685 14.4572 15.6016 15.4531C16.7819 16.6334 16.9764 17.1631 17.6405 17.1631H19.3815C19.8789 17.1631 20.1276 16.9144 19.9841 16.4236C19.8272 15.9344 19.2636 15.2248 18.5157 14.3834C18.1099 13.9038 17.5012 13.3873 17.3169 13.1292C17.0586 12.7971 17.1324 12.6497 17.3169 12.3547C17.3169 12.3547 19.4379 9.36668 19.6593 8.35219V8.35206Z" fill="#616161"/>
</svg>

<svg width="25" height="24" xmlns="http://www.w3.org/2000/svg"><rect x=".132" y=".129" width="23.871" height="23.871" rx="8"/><path fill-rule="evenodd" clip-rule="evenodd" d="M19.66 8.352c.11-.369 0-.64-.527-.64h-1.741c-.443 0-.647.234-.758.493 0 0-.885 2.158-2.14 3.56-.405.405-.59.534-.81.534-.111 0-.272-.129-.272-.498V8.352c0-.443-.128-.64-.497-.64h-2.736c-.276 0-.443.206-.443.4 0 .42.627.517.692 1.697v2.564c0 .562-.102.664-.323.664-.59 0-2.026-2.168-2.877-4.648-.167-.482-.335-.677-.78-.677h-1.74c-.498 0-.597.234-.597.493 0 .46.59 2.748 2.748 5.773 1.439 2.065 3.465 3.185 5.31 3.185 1.107 0 1.243-.249 1.243-.677v-1.561c0-.498.105-.597.455-.597.259 0 .701.13 1.735 1.125 1.18 1.18 1.374 1.71 2.038 1.71h1.741c.498 0 .747-.249.603-.74-.157-.489-.72-1.198-1.468-2.04-.406-.48-1.015-.996-1.2-1.254-.257-.332-.184-.48 0-.774 0 0 2.122-2.988 2.343-4.003z" fill="#616161"/></svg>
